!!!OTL: SANKT MICHEL DER HAT SICH GEBAUET
!!!ARE: Europa, Mitteleuropa, Deutschland, Niederrhein
!!!SCT: E2087
!!!YEM: Copyright 1995, estate of Helmut Schaffrath.
**kern
*ICvox
*Ivox
*M6/8
*k[b-e-]
*g:
{8d
=1
8g
8g
8a
8b-
8a
8b-
=2
4.g
4f#}
{8d
=3
4g
8a
8b-
8a
8g
=4
4.a
4r}
{16g
16a
=5
8b-
8a
8b-
8cc
8b-
8cc
=6
4.dd
4cc}
{8b-
=7
8a
8b-
8g
8f#
8g
8a
=8
4.g
4r}
==
!!!AGN: geistlich, Heiligen - Lied, Legende
!!!ONB: ESAC (Essen Associative Code) Database: ERK3
!!!AMT: compound duple
!!!AIN: vox
!!!EED: Helmut Schaffrath
!!!EEV: 1.0
*-
